!!!!SEGMENT: pl-sa--481-a-viii-121--002_anonim--valc.krn
!!!cenid: 18xx:373
!!!COM: Anonim
!!!COM-rismID: pe30004985
!!!CDT:
!!!CNT:
!!!OTL: Valc
!!!PDT:
!!!AGN: Secular; Waltz
!!!YEC: Copyright 2022 Narodowy Instytut Fryderyka Chopina (https://polishscores.org)
!!!YEM: License CC-BY-4.0 (https://creativecommons.org/licenses/by/4.0)
!!!SMS-siglum: PL-SA
!!!SMS-shelfmark: 481/A VIII 121
!!!SMS-shelfwork: 002 W
!!!SMS-variant:
!!!SMS-altvar:
!!!NIFC-rismSourceID: 1001070431
!!!NIFC-rismChildID: 1001070431
!!!NIFC-islandoraID: none
!!!URL-pdf-islandora:
!!!URL-scan: https://bc.bdsandomierz.pl/dlibra/publication/1212/edition/1171/content @EN{Scan in the Sandomierz Diocese Digital Library} @PL{Skany w portalu Cyfrowa Biblioteka Diecezjalna w Sandomierzu}
!!!IIIF:
!!!ONB-nifc: Str. 3, s. 3-4
!!!AIN: 1 piano
!!!key:
**kern	**kern
*part1	*part1
*staff2	*staff1
*Ipiano	*Iempty
*I"Piano	*
*I'P-no	*
*clefF4	*clefG2
*k[]	*k[]
*c:	*c:
*M3/8	*M3/8
*>[A,A]	*>[A,A]
=1!|:	=1!|:
!LO:TX:a:t=P:problem=mixed beam	!
!	!LO:TX:a:t=Valc
8GG/L	8bL 8g\
8G\	8b 8g\
8G\J	8ccJ 8a\
*Xrep	*
=2	=2
*rep	*
!LO:TX:a:t=P:problem=mixed beam	!
8GG/L	8ddL 8b\
8G\	8b 8g\
8G\J	8ccJ 8a\
*Xrep	*
=3	=3
*rep	*
!LO:TX:a:t=P:problem=mixed beam	!
8GG/L	8ddL 8b\
8G\	8dd 8b\
8G\J	8eeJ 8cc\
*Xrep	*
!LO:LB:g=original	!LO:LB:g=original
=4	=4
*rep	*
!LO:TX:a:t=P:problem=mixed beam	!
8GG/L	8ddL 8b 8g\
8G\	8b 8g\
8G\J	8ccJ 8a\
*Xrep	*
=5	=5
*rep	*
!LO:TX:a:t=P:problem=mixed beam	!
8GG/L	8ddL 8b\
8G\	8b 8g\
8G\J	8ccJ 8a\
*Xrep	*
=6	=6
8D/L	16dd\LL
.	16ee\
8D/	16dd\
.	16cc\
8D/J	16b\
.	16a\JJ
=7	=7
4GG/	4g/
!	!LO:TX:b:t=D&colon; C&colon;
8r	8r
=:|!	=:|!
*-	*-
!!!system-decoration: {(s1,s2)}
!!!ENC: Marta Lawrence
!!!END: 2020-11-19
!!!ENC: Marcin Jachim
!!!END: 2020-06-14
